X: 7
T:Arlodhes Eversham
M:2/4
L:1/16
R:Polka
Z:bil@blueskiesink.com
K:C
B2d2 c2e2|d2B2 B>AB>d|c2A2 A>GA|B2G2 G4:|
B2d2 g2>f2|f2e2 e4|d2^c2 f2>e2|e2d2 d4|
B2d2 g2>f2|f2e2 e3|d2^c2 e2>d2|B2G2 G4|
